X:0633
M:2/4
L:1/16
Q:1/4=104
K:D
   dedA fgfd|a2a2 a2f2|gage faec|d2d2 [1 d2 :|\
                                      [2 d4 ||
   ABcd efge|f2d2 d4  |gage fafd|cdec    A4  |
   ABcd efge|f2d2 d4  |fgae cdec|d2d2    d4 :|

